X:405
T: ICH LEBTE SONST SO FROH
N: B0477
O: Europa, Mitteleuropa, Deutschland, Hochwald, Hellertshausen
R: Liebes - Lied, Leid, Klage, Tod
M: 3/4
L: 1/16
K: F
C2 | A3GF6E2 | E3DD4z2
B2 | B2G2c6G2 | A4F4z2
c2 | c2A2f4e2d2 | d3cc6
A2 | A2G2B4G4 | A2d2c4z2
c2 | c2A2f4e2d2 | d3cc6
A2 | A2G2B4G4 | G4F4z2

